X:4
T:Mairi's Wedding
Z: id:dc-miscellaneous-9
M:2/4
L:1/8
K:G Major
D>E DE|GA B2|AG EG|BA B<d|!
D>E DE|GA B2|AG EC|D2 D2:|!
d>c de|dc B2|AG EG|BA B<d|!
d>c de|dc B2|AG EC|D2 D2:|!